X:1
T:Song That Might Play When You Fight Sans
C:Toby Fox
L:1/8
Q:1/4=120
M:4/4
I:linebreak $
K:Bb
V:1 treble nm="Violin" snm="Vln."
V:1
 z8 |:!f!!f! GFG z3/2 G z G,3/2 | z CC z3/2 C3/2 ^C>D | z GG z3/2 G z G,3/2 | %4
 z CC z3/2 C3/2 ^C>D |$ z EE E^F z/ F z/ A | z CC CC D/C C/B, | z EE E^F z/ F z/ A | %8
 z CC CC z/ ^F z/ A :|$!mf! G z D z G z D z | C z G, z C z G, z | G z D z G z D z | %12
 C z G, z C z G, z |$ G,2 D2 B2 G2 | ^FG A3 GDB, | ^C8 | z8 | F2 DG B2 F2 | =EF G2 E2 A,B, | F8 | %20
 =E8 | z8 | z8 |] %23
